!!!COM: Haydn, Franz Joseph
!!!CDT: 1732/03/31/-1809/05/31/
!!!CNT: Austrian
!!!OTL: Sonata No. 16 in D major
!!!SCT: Hob. XVI:14
!!!OMV: Mvmt. 3
!!!OMD: Presto
!!!ODT: 1760-1765///
!!!SMS: Universal Edition 1, Haydn Piano Sonatas, Vol. 1, No. 3
!!!ONB: Stich und Druck von Jos. Eberle & Co. Wien VII. Seidengasse 3-9
**kern	**kern	**dynam
*staff2	*staff1	*staff1/2
*>[A,A,B,B]	*>[A,A,B,B]	*>[A,A,B,B]
*>norep[A,B]	*>norep[A,B]	*>norep[A,B]
*>A	*>A	*>A
*clefF4	*clefG2	*clefG2
*k[f#c#]	*k[f#c#]	*k[f#c#]
*D:	*D:	*D:
*M2/4	*M2/4	*M2/4
*MM144	*MM144	*MM144
=1-	=1-	=1-
4r	8.dd\ (8.ff#\L	p
.	16ee\ 16gg\k	.
8r	8ff#`\ 8aa`\)	.
8A`\	8ee`\ 8gg`\J	.
=2	=2	=2
4B\	4dd\ 4ff#\	.
4r	4r	.
=3	=3	=3
2G\ 2B\	(16ee\LL	.
.	16dd#\	.
.	16ee\	.
.	16ff#\JJ	.
.	16gg\LL	.
.	16aa\	.
.	16bb\	.
.	16gg\JJ	.
=4	=4	=4
*^	*	*
8r	4F#\	16aa\LL	.
.	.	16ff#\	.
4d/	.	16ee\	.
.	.	16dd\JJ	.
.	4E\	4gg\	.
8c#/	.	.	.
=5	=5	=5	=5
		ff#Q/LL	.
		ggQ/JJ	.
4d/	&(4D\&)	4ff#\)	.
4r	4r	4r	.
*v	*v	*	*
=6	=6	=6
4r	(8.d/ 8.f#/L	.
.	16e/ 16g/k	.
8r	8f#`/) 8a`/	.
8A`\	8e`/ 8g`/J	.
=7	=7	=7
4B\	4d/ 4f#/	.
4r	4r	.
=8	=8	=8
2F#\ 2A\	(16d/LL	.
.	16e/	.
.	16f#/	.
.	16g/JJ	.
.	16a\LL	.
.	16b\	.
.	16cc#\	.
.	16dd\JJ	.
=9	=9	=9
8G\L	16b\LL	.
.	16dd\	.
8F#\	16a\	.
.	16dd\JJ	.
8E\	16cc#\LL	.
.	16gg\	.
8D\J	16dd\	.
.	16ff#\JJ	.
=10	=10	=10
&(8A'\L&)	4cc#\ 4ee\)	.
8E'\J	.	.
4AA/	4r	.
=11	=11	=11
*	*^	*
(16C#\LL	(8.ee/L	4.a\	mf
16A\	.	.	.
16G#\	.	.	.
16A\JJ	16ff#/k	.	.
16C#\LL	8gg`/)	.	.
16A\	.	.	.
16G#\	8gg`/J	8ee\	.
16A\JJ	.	.	.
=12	=12	=12	=12
16D\LL	4ff#/	4dd\	.
16A\	.	.	.
16G#\	.	.	.
16A\JJ	.	.	.
16D\LL	4r	4r	.
16A\	.	.	.
16G#\	.	.	.
16A\JJ	.	.	.
=13	=13	=13	=13
(16D#\LL)	8.ff#/L	4.b\	.
16B\	.	.	.
16A#\	.	.	.
16B\JJ	16gg#/k	.	.
16D#\LL	&(8aa/&)	.	.
16B\	.	.	.
16A#\	8aa/J	8ff#\	.
16B\JJ	.	.	.
=14	=14	=14	=14
16E\LL	4gg#/	4ee\	.
16B\	.	.	.
16A#\	.	.	.
16B\JJ	.	.	.
16E\LL	4r	4r	.
16B\	.	.	.
16A#\	.	.	.
16B\JJ	.	.	.
*	*v	*v	*
=15	=15	=15
8E\ 8G#\)	16r	.
.	16bb\LL	.
8r	16aa\	.
.	16gg#\JJ	.
4r	16ff#\LL	.
.	16ee\	.
.	16dd#\	.
.	&(16ee\JJ&)	.
*clefG2	*	*
=16	=16	=16
8f#/ 8a/	16r	.
.	(16bb\LL	.
8r	16aa\	.
.	16gg#\JJ	.
4r	16ff#\LL	.
.	16ee\	.
.	16dd#\	.
.	16ee\JJ)	.
=17	=17	=17
2g#/ 2b/	16r	.
.	(16dddn\LL	.
.	16ccc#\	.
.	16bb\JJ	.
.	16aa\LL	.
.	16gg#\	.
.	16ff#\	.
.	16ee\JJ	.
=18	=18	=18
	ddQ/	.
16r	2cc#\)	.
(16A/LL	.	.
16c#/	.	.
16e/JJ	.	.
8a`/L)	.	.
8A`/J	.	.
=19	=19	=19
*^	*	*
4a/	4d\	16r	.
.	.	(16ff#\LL	p
.	.	16gg#\	.
.	.	16aa\JJ)	.
[4a/	(4c#\	16r	.
.	.	(16ee\LL	.
.	.	16gg#\	.
.	.	16aa\JJ)	.
=20	=20	=20	=20
(8a/L]	4B\)	16dd\LL	.
.	.	16ff#\	.
8g#/J	.	16ee\	.
.	.	16dd\JJ	.
8a/)	8A\	16dd\LL	.
.	.	16cc#\	.
8r	8r	16b\	.
.	.	&(16a\JJ&)	.
=21	=21	=21	=21
4a/	4d\	16r	.
.	.	(16ff#\LL	mf
.	.	16gg#\	.
.	.	16aa\JJ)	.
[4a/	(4c#\	16r	.
.	.	(16ee\LL	.
.	.	16gg#\	.
.	.	16aa\JJ)	.
=22	=22	=22	=22
8a/L]	4B\)	16dd\LL	.
.	.	16ff#\	.
8g#/J	.	16ee\	.
.	.	16dd\JJ	.
&(8a/&)	8A\	16dd\LL	.
.	.	16cc#\	.
8r	8r	16b\	.
.	.	&(16a\JJ&)	.
*v	*v	*	*
*clefF4	*	*
=23	=23	=23
2Fn\ 2fn\	16r	.
.	(16a\LL	f
.	16dd#\	.
.	16a\JJ	.
.	16aa\LL	.
.	16a\	.
.	16dd#\	.
.	16a\JJ)	.
=24	=24	=24
2F#\ 2f#\	16r	.
.	(16a\LL	.
.	16dd#\	.
.	16a\JJ	.
.	16aa\LL	.
.	16a\	.
.	16dd#\	.
.	16a\JJ)	.
=25	=25	=25
2D#\ 2d#\	16r	.
.	(16b\LL	.
.	16ff#\	.
.	16b\JJ	.
.	16aa\LL	.
.	16b\	.
.	16ff#\	.
.	16b\JJ)	.
=26	=26	=26
2G#\ 2g#\	16r	.
.	(16ddn\LL	.
.	16ee\	.
.	16dd\JJ	.
.	16bb\LL	.
.	16dd\	.
.	16ee\	.
.	16dd\JJ)	.
=27	=27	=27
2E#\ 2e#\	16r	.
.	(16dd\LL	.
.	16gg#\	.
.	16dd\JJ	.
.	16bb\LL	.
.	16dd\	.
.	16gg#\	.
.	16dd\JJ)	.
=28	=28	=28
4F#\ 4f#\	16r	.
.	(16cc#\LL	.
.	16aa\	.
.	16cc#\JJ)	.
4D#\ 4d#\	16r	.
.	(16b\LL	.
.	16aa\	.
.	16b\JJ)	.
=29	=29	=29
4E\ 4e\	16r	.
.	(16b\LL	.
.	16gg#\	.
.	16b\JJ)	.
4G#\ 4g#\	16r	.
.	(16ddn\LL	.
.	16bb\	.
.	16dd\JJ)	.
=30	=30	=30
4A\ 4a\	16r	.
.	(16cc#\LL	.
.	16aa\	.
.	16cc#\JJ	.
4D#\ 4d#\	16r	.
.	(16cc#\LL)	.
.	16aa\	.
.	16cc#\JJ	.
=31	=31	=31
4E\ 4e\	4b\ 4gg#\)	.
4r	4r	.
=32	=32	=32
4r	8.a\ (8.cc#\L	p
.	16b\ 16dd\k	.
8r	8cc#`\ 8ee`\)	.
8e`\	8b`\ 8dd`\J	.
=33	=33	=33
4f#\	4a\ 4cc#\	.
4r	4r	.
=34	=34	=34
4r	8.a\ (8.cc#\L	.
.	16b\ 16dd\k	.
8r	8cc#`\ 8ee`\)	.
8e`\	8b\ 8dd\J	.
=35	=35	=35
4f#\	4a\ 4cc#\	.
4r	4r	.
=36	=36	=36
4r	8.a\ (8.cc#\L	.
.	16b\ 16dd\k	.
8r	8cc#`\ 8ee`\)	.
8E`\	8b`\ 8dd`\J	.
=37	=37	=37
8F#`\L	8a`\ 8cc#`\L	.
8C#`\ 8A`\J	8aa`\J	.
	(gg#Q/	.
4D\ 4A\	(8ff#\L)	.
.	16ee\L	.
.	16dd\JJ	.
=38	=38	=38
	ddQ/	.
4E\ 4A\	&(8cc#\L&)	.
.	16b\L	.
.	16a\JJ	.
4E\ 4G#\	4b\	.
=39	=39	=39
	aQ/LL	.
	bQ/JJ	.
4AA\ &(4A\&)	4a/)	.
8r	(16ee/LL	mf
.	16cc#/	.
8c#`\	16a/	.
.	16e/JJ	.
=40	=40	=40
8d\L	(8e#/L)	.
&(8D\J&)	8f#/J)	.
8r	(16dd/LL	.
.	16b/	.
8E`\ 8B`\	16g#/	.
.	16en/JJ	.
=41	=41	=41
8A\L	(8b#\L)	.
&(8AA\J&)	8cc#\J)	.
8r	(16ee/LL	.
.	16cc#/	.
8c#`\	16a/	.
.	16e/JJ	.
=42	=42	=42
8d\L	8e#/L)	.
&(8D\J&)	8f#/J	.
8r	(16dd/LL	.
.	16b/	.
8E`\ 8B`\	16g#/	.
.	16en/JJ	.
=43	=43	=43
(8A\L	4a/)	.
8AA\J)	.	.
4r	4r	.
=44:|!|:	=44:|!|:	=44:|!|:
*>B	*>B	*>B
*clefG2	*	*
*^	*	*
8r	2A\	(16a\LL	mf
.	.	16aa\	.
8c#/L	.	16a\	.
.	.	16aa\JJ	.
8e/	.	16a\LL	.
.	.	16aa\	.
&(8c#/J&)	.	16a\	.
.	.	16aa\JJ	.
=45	=45	=45	=45
8r	2A\	16b\LL	.
.	.	16gg#\	.
8B/L	.	16b\	.
.	.	16gg#\JJ	.
8d/	.	16b\LL	.
.	.	16gg#\	.
&(8B/J&)	.	16b\	.
.	.	16gg#\JJ	.
=46	=46	=46	=46
8r	2A\	16a\LL	.
.	.	16ggn\	.
8c#/L	.	16a\	.
.	.	16gg\JJ	.
8e/	.	16a\LL	.
.	.	16gg\	.
&(8c#/J&)	.	16a\	.
.	.	16gg\JJ	.
=47	=47	=47	=47
8r	2A\	16a\LL	.
.	.	16ffn\	.
8d/L	.	16a\	.
.	.	16ff\JJ	.
8fn/	.	16a\LL	.
.	.	16ff\	.
&(8d/J&)	.	16a\	.
.	.	16ff\JJ	.
=48	=48	=48	=48
8r	2A\	16g#\LL	.
.	.	16dd\	.
8B/L	.	16g#\	.
.	.	16dd\JJ	.
8d/	.	16g#\LL	.
.	.	16dd\	.
&(8B/J&)	.	16g#\	.
.	.	16dd\JJ	.
=49	=49	=49	=49
4c#/	4A\	4a/)	.
4r	4r	4r	.
*v	*v	*	*
=50	=50	=50
4r	8.dd\ (8.ffn\L	p
.	16ee\ 16gg\k	.
*clefF4	*	*
8r	8ff`\ 8aa`\)	.
8A`\	8ee`\ 8gg`\J	.
=51	=51	=51
4B-\	4dd\ 4ffn\	.
4r	4r	.
=52	=52	=52
4r	8.dd\ (8.ffn\L	.
.	16ee\ 16gg\k	.
8r	8ff`\ 8aa`\)	.
8A`\	8ee`\ 8gg`\J	.
=53	=53	=53
4B-\	4dd\ 4ffn\	.
4r	4r	.
=54	=54	=54
2G^\ 2B-^\ 2e-^\	(4.ee-\	f
.	24gg\LL	.
.	24aa\	.
.	24bb-\JJ	.
=55	=55	=55
4Fn\ &(4d\&)	8aa`\L)	.
.	8dd`\J	.
	(ffnQ/	.
8G\L	8een\L	.
8A\J	16dd\L	.
.	16cc#\JJ	.
=56	=56	=56
&(4D\&)	8dd\L)	.
.	(8a\J	p
*clefG2	*	*
8r	[4b-\)	.
(8d/ 8fn/	.	.
=57	=57	=57
4.c#/) 4.e/	8b-/L]	.
.	8g#/J	.
.	&([4a/&)	.
(8d/ 8fn/	.	.
=58	=58	=58
4.c#/) 4.e/	8a/L]	.
.	8b-/J	.
.	&([4a/&)	.
(8d/ 8fn/	.	.
=59	=59	=59
8c#/) 8e/L	8a/L]	.
(8d/ 8fn/	8b-/	.
8c#/ 8e/	8a/	.
8d/ 8f/J	8b-/J	.
=60	=60	=60
4c#/) 4e/	&(8a\L&)	mf
.	16ee\L	.
.	16ffn\JJ	.
	aaQ/	.
4r	8gg\L	.
.	16ff\L	.
.	16ee\JJ	.
=61	=61	=61
4r	&(8ffn\L&)	.
.	(8dd\J	p
8r	[4ee-\)	.
(8g/ 8b-/	.	.
=62	=62	=62
4.f#/) 4.a/	8ee-\L]	.
.	8cc#\J	.
.	&([4dd\&)	.
(8g/ 8b-/	.	.
=63	=63	=63
4.f#/) 4.a/	8dd\L]	.
.	8ee-\J	.
.	&([4dd\&)	.
(8g/ 8b-/	.	.
=64	=64	=64
8f#/) 8a/L	8dd\L]	.
(8g/ 8b-/	8ee-\	.
8f#/ 8a/	8dd\	.
8g/ 8b-/J	8ee-\J	.
=65	=65	=65
4f#/) 4a/	&(8dd\L&)	mf
.	16aa\L	.
.	16bb-\JJ	.
	dddQ/	.
8r	8cccn\L	.
8f#/ 8dd/	16bb-\L	.
.	16aa\JJ	.
=66	=66	=66
8g\ 8dd\	&((16bb-\LL&)	.
.	16gg\	.
8r	16aa\	.
.	16bb-\JJ	.
8e/ 8ccn/	16cccn\LL	.
.	16bb-\	.
8r	16aa\	.
.	16gg\JJ	.
=67	=67	=67
8fn/ 8ccn/	16aa\LL)	.
.	(16ffn\	.
8r	16gg\	.
.	16aa\JJ	.
8d/ 8b-/	16bb-\LL	.
.	16aa\	.
8r	16gg\	.
.	16ff\JJ	.
=68	=68	=68
8e/ 8b-/	16gg\LL)	.
.	(16ee\	.
8r	16ffn\	.
.	16gg\JJ	.
8c#/ 8a/	16aa\LL	.
.	16gg\	.
8r	16ff\	.
.	16ee\JJ)	.
=69	=69	=69
8d/ 8a/	16r	.
.	(16ffn\LL	p
8r	16ee\	.
.	16dd\JJ)	.
8e/	16r	.
.	(16gg\LL	.
8r	16ff\	.
.	16ee\JJ)	.
=70	=70	=70
8fn/	(16aa\LL	.
.	16ffn\	.
8r	16ee\	.
.	16dd\JJ)	.
8g/L	(16bb-\LL	.
.	16gg\	.
8g#/J	16ff\	.
.	16ee\JJ	.
=71	=71	=71
&(8a`/L&)	8dd\L	.
8A`/J	8cc#\J)	.
4r	4r	.
*clefF4	*	*
=72	=72	=72
*	*^	*
(16C#\LL	(8.ee/L	4.a\	mf
16A\	.	.	.
16G#\	.	.	.
16A\JJ	16ff#/k	.	.
16C#\LL	8gg`/)	.	.
16A\	.	.	.
16G#\	8gg/J	8ee\	.
16A\JJ	.	.	.
=73	=73	=73	=73
16D\LL	4ff#/	4dd\	.
16A\	.	.	.
16G#\	.	.	.
16A\JJ	.	.	.
16D\LL	4r	4r	.
16A\	.	.	.
16G#\	.	.	.
16A\JJ	.	.	.
=74	=74	=74	=74
16C#\LL)	8.ee/L	4.a\	.
(16A\	.	.	.
16G#\	.	.	.
16A\JJ	16ff#/k	.	.
16C#\LL	&(8gg/&)	.	.
16A\	.	.	.
16G#\	8gg`/J	8ee\	.
16A\JJ	.	.	.
=75	=75	=75	=75
16D\LL	4ff#/	4dd\	.
16A\	.	.	.
16G#\	.	.	.
16A\JJ	.	.	.
16D\LL	4r	4r	.
16A\	.	.	.
16G#\	.	.	.
16A\JJ	.	.	.
=76	=76	=76	=76
16F#\LL)	8.aa/L	4.dd\	.
16d\	.	.	.
16c#\	.	.	.
16d\JJ	16bbn/k	.	.
16F#\LL	&(8cccn/&)	.	.
16d\	.	.	.
16c#\	8ccc/J	8aa\	.
16d\JJ	.	.	.
=77	=77	=77	=77
16G\LL	4bb/	4gg\	.
16d\	.	.	.
16c#\	.	.	.
16d\JJ	.	.	.
16G\LL	4r	4r	.
16d\	.	.	.
16c#\	.	.	.
16d\JJ	.	.	.
=78	=78	=78	=78
(16G#\LL	(8.bb/L	4.ee\	.
16e\	.	.	.
16d#\	.	.	.
16e\JJ	16ccc#/k	.	.
16G#\LL	8ddd`/)	.	.
16e\	.	.	.
16d#\	8ddd`/J	8bb\	.
16e\JJ	.	.	.
=79	=79	=79	=79
16A\LL	4ccc#/	4aa\	.
16e\	.	.	.
16d#\	.	.	.
16e\JJ	.	.	.
16A\LL	4r	4r	.
16e\	.	.	.
16d#\	.	.	.
16e\JJ	.	.	.
*	*v	*v	*
=80	=80	=80
8A\ 8c#\)	16r	.
.	16ee\LL	.
8r	16dd\	.
.	16cc#\JJ	.
4r	16b/LL	.
.	16a/	.
.	16g#/	.
.	&(16a/JJ&)	.
=81	=81	=81
8B\ 8d\	16r	.
.	(16ee\LL	.
8r	16dd\	.
.	16cc#\JJ	.
4r	16b/LL	.
.	16a/	.
.	16g#/	.
.	16a/JJ)	.
=82	=82	=82
2c#\ 2e\	16r	.
.	(16ggn\LL	.
.	16ff#\	.
.	16ee\JJ	.
.	16dd\LL	.
.	16cc#\	.
.	16b\	.
.	16a\JJ	.
=83	=83	=83
	gQ/	.
16r	2f#/)	.
(16D\LL	.	.
16F#\	.	.
16A\JJ	.	.
8d`\L)	.	.
8D`\J	.	.
=84	=84	=84
*^	*	*
4d/	4G\	16r	.
.	.	(16b\LL	.
.	.	16cc#\	.
.	.	16dd\JJ)	.
[4d/	(4F#\	16r	.
.	.	(16a\LL	.
.	.	16cc#\	.
.	.	16dd\JJ)	.
=85	=85	=85	=85
8d/L]	4E\)	16g/LL	.
.	.	16b/	.
8c#/J	.	16a/	.
.	.	16g/JJ	.
&(8d/&)	8D\	16g/LL	.
.	.	16f#/	.
8r	8r	16e/	.
.	.	&(16d/JJ&)	.
=86	=86	=86	=86
4d/	4G\	16r	.
.	.	(16b\LL	mf
.	.	16cc#\)	.
.	.	16dd\JJ	.
[4d/	(4F#\	16r	.
.	.	(16a\LL	.
.	.	16cc#\	.
.	.	16dd\JJ)	.
=87	=87	=87	=87
8d/L]	4E\)	16g/LL	.
.	.	16b/	.
8c#/J	.	16a/	.
.	.	16g/JJ	.
&(8d/&)	8D\	16g/LL	.
.	.	16f#/	.
8r	8r	16e/	.
.	.	&(16d/JJ&)	.
*v	*v	*	*
=88	=88	=88
2BB-\ 2B-\	16r	.
.	(16d/LL	.
.	16g#/	.
.	16d/JJ	.
.	16dd/LL	.
.	16d/	.
.	16g#/	.
.	16d/JJ)	.
=89	=89	=89
2BBn\ 2Bn\	16r	.
.	(16d/LL	.
.	16g#/	.
.	16d/JJ	.
.	16dd/LL	.
.	16d/	.
.	16g#/	.
.	16d/JJ)	.
=90	=90	=90
2GG#/ 2G#/	16r	.
.	(16e/LL	.
.	16b/	.
.	16e/JJ	.
.	16dd/LL	.
.	16e/	.
.	16b/	.
.	16e/JJ)	.
=91	=91	=91
2C#\ 2c#\	16r	.
.	(16gn/LL	.
.	16a/	.
.	16g/JJ	.
.	16ee/LL	.
.	16g/	.
.	16a/	.
.	16g/JJ)	.
=92	=92	=92
2AA#\ 2A#\	16r	.
.	(16g/LL	.
.	16cc#/	.
.	16g/JJ	.
.	16ee/LL	.
.	16g/	.
.	16cc#/	.
.	16g/JJ)	.
=93	=93	=93
4BB\ 4B\	16r	.
.	(16f#/LL	.
.	16dd/	.
.	16f#/JJ)	.
4GG#/ 4G#/	16r	.
.	(16e/LL	.
.	16dd/	.
.	16e/JJ)	.
=94	=94	=94
4AA\ 4A\	16r	.
.	(16e/LL	.
.	16cc#/	.
.	16e/JJ)	.
4C#\ 4c#\	16r	.
.	(16gn/LL	.
.	16ee/	.
.	16g/JJ)	.
=95	=95	=95
4D\ 4d\	16r	.
.	(16f#/LL	.
.	16dd/	.
.	16f#/JJ)	.
4GG#/ 4G#/	16r	.
.	(16f#/LL	.
.	16dd/	.
.	16f#/JJ)	.
=96	=96	=96
4AA\ 4A\	4e/ 4cc#/	.
4r	4r	.
=97	=97	=97
4r	8.dd\ (8.ff#\L	p
.	16ee\ 16gg\k	.
8r	8ff#`\ 8aa`\)	.
*clefG2	*	*
8a/	8ee`\ 8gg`\J	.
=98	=98	=98
4b\	4dd\ 4ff#\	.
4r	4r	.
=99	=99	=99
4r	8.dd\ (8.ff#\L	.
.	16ee\ 16gg\k	.
8r	8ff#`\ 8aa`\)	.
8a`/	8ee`\ 8gg`\J	.
=100	=100	=100
4b\	4dd\ 4ff#\	.
4r	4r	.
=101	=101	=101
4r	8.dd\ (8.ff#\L	.
.	16ee\ 16gg\k	.
8r	8ff#`\ 8aa`\)	.
*clefF4	*	*
8A`\	8ee`\ 8gg`\J	.
=102	=102	=102
8B`\L	8dd`\ 8ff#`\L	.
8F#`\ 8d`\J	8ddd`\J	.
	(ccc#Q/	.
4G\ 4d\	(8bb\L)	.
.	16aa\L	.
.	16gg\JJ	.
=103	=103	=103
	ggQ/	.
4A\ 4d\	8ff#\L	.
.	16ee\L	.
.	16dd\JJ	.
4A\ 4c#\	4ee\	.
=104	=104	=104
	ddQ/LL	.
	eeQ/JJ	.
4D\ &(4d\&)	4dd\)	.
8r	(16aa\LL	mf
.	16ff#\	.
8f#`\	16dd\	.
.	16a\JJ	.
=105	=105	=105
8g\L	(8a#/L)	.
&(8G\J&)	8b/J)	.
8r	(16gg\LL	.
.	16ee\	.
8A`\ 8e`\	16cc#\	.
.	16an\JJ	.
=106	=106	=106
8d\L	(8cc#\L)	.
&(8D\J&)	8dd\J)	.
8r	(16aa\LL	.
.	16ff#\	.
8f#`\	16dd\	.
.	16a\JJ	.
=107	=107	=107
8g\L	(8a#/L)	.
&(8G\J&)	8b/J)	.
8r	(16gg\LL	.
.	16ee\	.
8A`\ 8e`\	16cc#\	.
.	16an\JJ	.
=108	=108	=108
(8d\L	4dd\)	.
8D\J)	.	.
4r	4r	.
==:|!	==:|!	==:|!
*-	*-	*-
!!!ENC: Craig Stuart Sapp
!!!END: 2008/03/05/
